X:1
T:O Nederland, let op u saeck
T:O Nederland, let op u saeck
T:Adriaen Valerius (1576)
C:Adriaen Valerius (1576)
L:1/8
M:2/2
K:F
V:1 treble 
V:1
 D2 | G2 A2 B2 c2 | d2 d2 d2 f2 | e2 d2 d2 ^c2 | d6 :| d2 | B2 B2 B2 d2 | c2 c2 c3 A | %8
 B2 A2 G2 B2 | c4 A4 | GFGA B2 A2 | GABc d3 d | c2 B2 A2 G2 | A4 !fermata!G4 || %14

